X: 3241
T: Behind The Bush In The Garden
R: jig
M: 6/8
K: Adorian
|:c3 AGE|c3 AGE|B3 B2c|B3 GAB|
c2B c2d|efe e2d|c2A B2G|A3 A3:|
|:c2B c2d|efe e2d|c2B c2d|e3 A3|
c2B c2d|efe e2d|c2A BAG|A3 A3:|

